X:1
T: Charlotte Square
C:Muriel A Johnstone
R:Strathspey
%Q: 128
K:F
M:4/4
L:1/16
|:C4|F4 Ac3 d3c df3|c3f ((3agf) ec3 c4|F4 Ac3 d3c df3|dg3 g3f ec3 c4|
F4 Ac3 d3c df3|cf3 a3g fd3 d3f|b4 b3a g3f e3d|((3cdc) ((3BAG) F4c4|
f4 F3G Ac3 c4|f3d e^c3 d4 d2f2|c4 C3C DF3 ((3FGA) |((3BAG) ((3AGF) E2G2 ((3cde) |
f4 F3G Ac3 c4|f3d e^c3 d4 d2f2|b4 b3a g3f e3d|((3cdc) ((3BAG) F4:|
